icons/help-large.svg

<svg xmlns="http://www.w3.org/2000/svg" width="24" height="24" viewBox="0 0 24 24">
  <path d="M11.5,18 C12.3284271,18 13,18.6715729 13,19.5 C13,20.3284271 12.3284271,21 11.5,21 C10.6715729,21 10,20.3284271 10,19.5 C10,18.6715729 10.6715729,18 11.5,18 Z M11.5712523,3 C14.5652067,3 17,5.3322 17,8.2 C17,10.397 15.5993831,11.3603 14.5760642,12.0636 C13.5826033,12.7461 12.9284392,13.1959 12.9284392,14.7 L12.9284392,14.7 L12.9284392,16 L10.2140654,16 L10.2140654,14.7 C10.2140654,11.8621 11.8209747,10.7571 12.9935842,9.9511 C13.9531154,9.2907 14.2856262,9.0216 14.2856262,8.2 C14.2856262,6.7661 13.0682295,5.6 11.5712523,5.6 C10.4230722,5.6 9.39432449,6.2968 9.01024059,7.3329 L9.01024059,7.3329 L8.95738635,7.45694824 C8.66531566,8.05752233 7.96647514,8.35820993 7.32088702,8.13939664 L7.32088702,8.13939664 L7.23670082,8.11086288 C7.22557909,8.10709332 7.21451018,8.1031697 7.20349727,8.09909314 C6.54567367,7.85559181 6.20979911,7.1249236 6.45330043,6.4671 C7.21739667,4.3936 9.27624923,3 11.5712523,3 Z"/>
</svg>

<svg xmlns="http://www.w3.org/2000/svg" viewBox="0 0 24 24">
  <path d="M11.5 18a1.5 1.5 0 1 1 0 3 1.5 1.5 0 0 1 0-3zm.07-15c3 0 5.43 2.33 5.43 5.2 0 2.2-1.4 3.16-2.42 3.86-1 .69-1.65 1.14-1.65 2.64V16H10.2v-1.3c0-2.84 1.61-3.94 2.78-4.75.96-.66 1.3-.93 1.3-1.75 0-1.43-1.22-2.6-2.72-2.6-1.15 0-2.18.7-2.56 1.73l-.05.13c-.3.6-1 .9-1.64.68l-.08-.03a1.27 1.27 0 0 1-.79-1.64A5.43 5.43 0 0 1 11.57 3z"/>
</svg>
